assets/fc/fc-photo-reel.svg

<svg xmlns="http://www.w3.org/2000/svg" width="100%" height="100%" viewBox="0 0 48 48"><path fill="#673AB7" d="M10 9c-2.2 0-4 1.8-4 4v26c0 2.2 1.8 4 4 4h16c2.2 0 4-1.8 4-4V13c0-2.2-1.8-4-4-4"/><g fill="#311B92"><path d="M14 13h2v26h-2zM24 9V7c0-1.2-.8-2-2-2h-8c-1.2 0-2 .8-2 2v2h12z"/></g><path fill="#D84315" d="M30 13H16v26h14V13zm-9 24h-3v-4h3v4zm0-18h-3v-4h3v4zm6 18h-3v-4h3v4zm-3-18v-4h3v4h-3z"/><path fill="#FF5722" d="M30 13v2h3v4h-3v14h3v4h-3v2h12V13H30zm9 24h-3v-4h3v4zm0-18h-3v-4h3v4z"/></svg>

<svg xmlns="http://www.w3.org/2000/svg" width="100%" height="100%" viewBox="0 0 48 48"><path fill="#673AB7" d="M10,9c-2.2,0-4,1.8-4,4v26c0,2.2,1.8,4,4,4h16c2.2,0,4-1.8,4-4V13c0-2.2-1.8-4-4-4"/><g fill="#311B92"><path d="M14 13H16V39H14zM24 9V7c0-1.2-.8-2-2-2h-8c-1.2 0-2 .8-2 2v2H24z"/></g><path fill="#D84315" d="M30,13H16v26h14V13z M21,37h-3v-4h3V37z M21,19h-3v-4h3V19z M27,37h-3v-4h3V37z M24,19v-4h3v4H24z"/><path fill="#FF5722" d="M30,13v2h3v4h-3v14h3v4h-3v2h12V13H30z M39,37h-3v-4h3V37z M39,19h-3v-4h3V19z"/></svg>
